X:138
T:Savage Hornpipe,aka. Le4.138
T:Hornpipe in MS. Le4.138
M:C|
L:1/8
Q:1/4=120
B:L.Leadley MS#4 c1850
Z:Village Music Project, 2016 Ruairidh Greig
K:Bb
F2|BABc Bcde|fefg fdcB|GFGA GABc|d2F2F2ED|
EDEF GFGA|BABc Bdfb|fdcB GABc|d2B2B2:|
|:f2|dfBf dfBf|cfAf cfAf|GBEB GBEB|FBDB FBDB|
EDEF GFGA|BABc Bdfb|fdcB GABc|d2B2B2z2:|

